X: 2
T: Jimmy Ward's
R: jig
M: 6/8
L: 1/8
K: Gmaj
G3 G2B|AGE GED|GFG AGE|GED D2E|G3 G2B|AGE GAB|cBA BGE|1 DED DEF:|2 DED D3||:c2A BAG|ABA AGE|c2A BGE|DED DAB|c2A BAG|ABA ABc|dcA AGE|1 DED D3:|2 DED DEF||


Tune 793	Setting 13941

